icons/invoice.svg

<svg xmlns="http://www.w3.org/2000/svg" style="isolation:isolate" width="96" height="96"><path d="M40 36c-1.1 0-2.1-.4-2.8-1.2-.8-.7-1.2-1.7-1.2-2.8 0-1.1.4-2.1 1.2-2.8.7-.8 1.7-1.2 2.8-1.2h24c1.1 0 2.1.4 2.8 1.2.8.7 1.2 1.7 1.2 2.8 0 1.1-.4 2.1-1.2 2.8-.7.8-1.7 1.2-2.8 1.2H40zm0-12c-1.1 0-2.1-.4-2.8-1.2-.8-.7-1.2-1.7-1.2-2.8 0-1.1.4-2.1 1.2-2.8.7-.8 1.7-1.2 2.8-1.2h24c1.1 0 2.1.4 2.8 1.2.8.7 1.2 1.7 1.2 2.8 0 1.1-.4 2.1-1.2 2.8-.7.8-1.7 1.2-2.8 1.2H40zm-16-4c0-2.208 1.792-4 4-4s4 1.792 4 4-1.792 4-4 4-4-1.792-4-4zm-4 15.366L48 54.3l28-18.934V12H20v23.366zm-8-5.106l-.9-.36c-.7-.2-1.4-.3-2-.2-3.2.5-5.4 3.4-5.1 6.5V84c0 2.1.8 4.2 2.3 5.7C7.8 91.2 9.9 92 12 92h72c2.1 0 4.2-.8 5.7-2.3 1.5-1.5 2.3-3.6 2.3-5.7V36.2c.3-3.1-1.9-6-5.1-6.5-.6-.1-1.3 0-2 .2l-.9.36V12c0-2.1-.8-4.2-2.3-5.7C80.2 4.8 78.1 4 76 4H20c-2.1 0-4.2.8-5.7 2.3C12.8 7.8 12 9.9 12 12v18.26zm0 9.24V84h72V39.5L51.4 61.7q-2.027.9-3.4.9-1.373 0-3.4-.9L12 39.5z" fill-rule="evenodd" fill="#454545"/></svg>

<?xml version="1.0" standalone="no"?><!-- Generator: Gravit.io --><svg xmlns="http://www.w3.org/2000/svg" xmlns:xlink="http://www.w3.org/1999/xlink" style="isolation:isolate" width="96" height="96"><path d=" M 40 36 C 38.9 36 37.9 35.6 37.2 34.8 C 36.4 34.1 36 33.1 36 32 C 36 30.9 36.4 29.9 37.2 29.2 C 37.9 28.4 38.9 28 40 28 L 64 28 C 65.1 28 66.1 28.4 66.8 29.2 C 67.6 29.9 68 30.9 68 32 C 68 33.1 67.6 34.1 66.8 34.8 C 66.1 35.6 65.1 36 64 36 L 40 36 Z  M 40 24 C 38.9 24 37.9 23.6 37.2 22.8 C 36.4 22.1 36 21.1 36 20 C 36 18.9 36.4 17.9 37.2 17.2 C 37.9 16.4 38.9 16 40 16 L 64 16 C 65.1 16 66.1 16.4 66.8 17.2 C 67.6 17.9 68 18.9 68 20 C 68 21.1 67.6 22.1 66.8 22.8 C 66.1 23.6 65.1 24 64 24 L 40 24 Z  M 24 20 C 24 17.79233988198995 25.79233988198995 16 28 16 C 30.20766011801005 16 32 17.79233988198995 32 20 C 32 22.207660118010047 30.20766011801005 24 28 24 C 25.792339881989953 24 24 22.20766011801005 24 20 Z  M 20 35.365902578800004 L 48 54.3 L 48 54.3 L 76 35.365902578800004 L 76 12 L 20 12 L 20 35.365902578800004 Z  M 12 30.26 L 11.1 29.9 C 10.4 29.7 9.7 29.6 9.1 29.7 C 5.9 30.2 3.7 33.1 4 36.2 L 4 84 C 4 86.1 4.8 88.2 6.3 89.7 C 7.8 91.2 9.9 92 12 92 L 84 92 C 86.1 92 88.2 91.2 89.7 89.7 C 91.2 88.2 92 86.1 92 84 L 92 36.2 C 92.3 33.1 90.1 30.2 86.9 29.7 C 86.3 29.6 85.6 29.7 84.9 29.9 L 84 30.26 L 84 12 C 84 9.9 83.2 7.8 81.7 6.3 C 80.2 4.8 78.1 4 76 4 L 20 4 C 17.9 4 15.8 4.8 14.3 6.3 C 12.8 7.8 12 9.9 12 12 L 12 30.26 Z  M 12 39.5 L 12 84 L 84 84 L 84 39.5 L 51.4 61.7 Q 49.37259392600501 62.6 48 62.6 Q 46.62740607399499 62.6 44.6 61.7 L 12 39.5 L 12 39.5 Z " fill-rule="evenodd" fill="rgb(69,69,69)" stroke="none"/><mask id="_mask_6pRY9GevBfOPycQn4OMd6aegl33zlm7F"><path d=" M 40 36 C 38.9 36 37.9 35.6 37.2 34.8 C 36.4 34.1 36 33.1 36 32 C 36 30.9 36.4 29.9 37.2 29.2 C 37.9 28.4 38.9 28 40 28 L 64 28 C 65.1 28 66.1 28.4 66.8 29.2 C 67.6 29.9 68 30.9 68 32 C 68 33.1 67.6 34.1 66.8 34.8 C 66.1 35.6 65.1 36 64 36 L 40 36 Z  M 40 24 C 38.9 24 37.9 23.6 37.2 22.8 C 36.4 22.1 36 21.1 36 20 C 36 18.9 36.4 17.9 37.2 17.2 C 37.9 16.4 38.9 16 40 16 L 64 16 C 65.1 16 66.1 16.4 66.8 17.2 C 67.6 17.9 68 18.9 68 20 C 68 21.1 67.6 22.1 66.8 22.8 C 66.1 23.6 65.1 24 64 24 L 40 24 Z  M 24 20 C 24 17.79233988198995 25.79233988198995 16 28 16 C 30.20766011801005 16 32 17.79233988198995 32 20 C 32 22.207660118010047 30.20766011801005 24 28 24 C 25.792339881989953 24 24 22.20766011801005 24 20 Z  M 20 35.365902578800004 L 48 54.3 L 48 54.3 L 76 35.365902578800004 L 76 12 L 20 12 L 20 35.365902578800004 Z  M 12 30.26 L 11.1 29.9 C 10.4 29.7 9.7 29.6 9.1 29.7 C 5.9 30.2 3.7 33.1 4 36.2 L 4 84 C 4 86.1 4.8 88.2 6.3 89.7 C 7.8 91.2 9.9 92 12 92 L 84 92 C 86.1 92 88.2 91.2 89.7 89.7 C 91.2 88.2 92 86.1 92 84 L 92 36.2 C 92.3 33.1 90.1 30.2 86.9 29.7 C 86.3 29.6 85.6 29.7 84.9 29.9 L 84 30.26 L 84 12 C 84 9.9 83.2 7.8 81.7 6.3 C 80.2 4.8 78.1 4 76 4 L 20 4 C 17.9 4 15.8 4.8 14.3 6.3 C 12.8 7.8 12 9.9 12 12 L 12 30.26 Z  M 12 39.5 L 12 84 L 84 84 L 84 39.5 L 51.4 61.7 Q 49.37259392600501 62.6 48 62.6 Q 46.62740607399499 62.6 44.6 61.7 L 12 39.5 L 12 39.5 Z " fill-rule="evenodd" fill="white" stroke="none"/></mask><path d=" M 40 36 C 38.9 36 37.9 35.6 37.2 34.8 C 36.4 34.1 36 33.1 36 32 C 36 30.9 36.4 29.9 37.2 29.2 C 37.9 28.4 38.9 28 40 28 L 64 28 C 65.1 28 66.1 28.4 66.8 29.2 C 67.6 29.9 68 30.9 68 32 C 68 33.1 67.6 34.1 66.8 34.8 C 66.1 35.6 65.1 36 64 36 L 40 36 Z  M 40 24 C 38.9 24 37.9 23.6 37.2 22.8 C 36.4 22.1 36 21.1 36 20 C 36 18.9 36.4 17.9 37.2 17.2 C 37.9 16.4 38.9 16 40 16 L 64 16 C 65.1 16 66.1 16.4 66.8 17.2 C 67.6 17.9 68 18.9 68 20 C 68 21.1 67.6 22.1 66.8 22.8 C 66.1 23.6 65.1 24 64 24 L 40 24 Z  M 24 20 C 24 17.79233988198995 25.79233988198995 16 28 16 C 30.20766011801005 16 32 17.79233988198995 32 20 C 32 22.207660118010047 30.20766011801005 24 28 24 C 25.792339881989953 24 24 22.20766011801005 24 20 Z  M 20 35.365902578800004 L 48 54.3 L 48 54.3 L 76 35.365902578800004 L 76 12 L 20 12 L 20 35.365902578800004 Z  M 12 30.26 L 11.1 29.9 C 10.4 29.7 9.7 29.6 9.1 29.7 C 5.9 30.2 3.7 33.1 4 36.2 L 4 84 C 4 86.1 4.8 88.2 6.3 89.7 C 7.8 91.2 9.9 92 12 92 L 84 92 C 86.1 92 88.2 91.2 89.7 89.7 C 91.2 88.2 92 86.1 92 84 L 92 36.2 C 92.3 33.1 90.1 30.2 86.9 29.7 C 86.3 29.6 85.6 29.7 84.9 29.9 L 84 30.26 L 84 12 C 84 9.9 83.2 7.8 81.7 6.3 C 80.2 4.8 78.1 4 76 4 L 20 4 C 17.9 4 15.8 4.8 14.3 6.3 C 12.8 7.8 12 9.9 12 12 L 12 30.26 Z  M 12 39.5 L 12 84 L 84 84 L 84 39.5 L 51.4 61.7 Q 49.37259392600501 62.6 48 62.6 Q 46.62740607399499 62.6 44.6 61.7 L 12 39.5 L 12 39.5 Z " fill-rule="evenodd" fill="none" stroke="none" stroke-width="16" mask="url(#_mask_6pRY9GevBfOPycQn4OMd6aegl33zlm7F)"/></svg>
